p "catwater"

d5
  $ chop 16
  $ slow "<4 6>"
  $ s "<Cat-Water(3,8) Cat-Water!2>"
   >| n (run 2)
  # amp 1.2
  # orbit 3

d1
  $ s "Cat-Water"
   -- n (run 100)
  # sustain 4
  # amp 1.2

d1 silence

d2
  $ s "<Bass_Drums:4(3,8) ~>"

d3
  $ s "<Hats:5 Hats:6(3,8)>"

d4
  -- $ slow 2
  $ n (off 0.125 (|- 12)
  $ off 0.25 (|+ "<3 4>") 
  "[<3 5 -7 9 [3 ~ _ ~ ~]>]")
  # sound "bass8"

d4 silence

d1 $ chop 8 $ stack [s "Cat-Water" >| n (run 10), s "Hats(3,8)" # n (run 20), s "Bass_Drums(5,7)"] 
