d1 
    -- $ jux rev
    $ every 3 (slow 4)
    $ struct "f(2,9)"
    -- $ stutWith 3 (0.125*3) (|* lpf 0.7) . (|* begin 0.2)
    $ chop "{16 32 128}"
    $ s "Neutron_12"
    # n "0..30"
    -- # lpf (range 500 1000 sine)
    -- # begin sine
    # speed 0.8
    # cut "{1 2 4}"
    # gain 0.9
    # orbit 3

    hush

d3
    $ s "hoarder:7/2"
    -- # begin (range 0 1 rand)
    # cut 1

    setcps 1

d1 silence

setcps 0.25