
d1
  -- $ chop "<16 8 32>"
  $ every 4(jux rev) $ "[<Field:1 Bass_Drums>, <sd(2,7) sn>, <Hats*4 Cat-Water>]"
  # n (run 200)
  # amp 0.4
  -- # crush "<3 40 10>"
  -- # ring "1 0" # ringf "100 220" #ringdf "<50 100>"
  # room "<0.5 0 1>"

d2 $ jux rev $ chop "<16 32>" $ slow 16 $ n "[3, {4 5}]*8"
  |+ s "~ <Hat_Loops roll_door_2>/2"
  # end (run 8)
  # amp 0.4
  -- # distort 5

d2 silence

d5 $ jux rev $ striate 16 $ s "~ hoarder/3 ~ ~" |+ n (run 10)

d5 silence
