d1 
  $ chunk 4 (jux rev)
  $ stut 3
  $ s "{Hats:5(7,8), Bass_Drums:5(3,8), Snare_Drums:5}" 
  # crush (sine * 10) 
  |- n (run 20)

d2 $ iter 4 $ every 2 (mask "f(3,8)") $ n (arpg "e'major7 [0,-4,-7,-11]") # s "t1002" # 

hush
