d1 
  $ slow 2 
  $ jux rev
  $ s "[AKWF_0005, AKWF_0001]" 
  +| n (run 8) 
  # legato sine
  -- # hpf (sine * (run 20))
  # crush (cF 0 "21")
  # gain 0.5

d1 silence

d2 $ s "[Bass_Drums(3,8), Hats(5,8), Snare_Drums*2]"
  |+ n (run 20)
  # gain 0.7

  d2 silence

d3 $ slow 2 $ note "-7 -3 1 -5" # s "bass8"
  # legato 0.5

d4 $ n "<1 3> -7 5*2" # s "t1002 Cat-Water:10"
  # cut 1

d4 silence
