setI "cc1" $ (cI 1 "21")

d1 $ slow 2  $ n "^cc1" #  s "supersaw supersquare"

d1 $ sound "bd" # amp (cF 1 "21")

-- d3 $ n (run 8) # s "midi"

d1 $ sound "amencutup" + n (run (segment 1 $ range 1 16 $ cN 1 "48" ))

d2 $ slow (cR 1 "21") $ sound "amencutup" # room (cF 10 "22") # sz (cF 1 "23")


d1 $ stack [
  sound "bd bd*2",
  sound "hh*2 [sn cp] cp future*4",
  sound "arpy" +| n "0 .. 15"
]


d1 $ whenmod 5 3 (striate 3) $ stack [
  sound "bd bd*2",
  sound "hh*2 [sn cp] cp future*4",
  sound "arpy" +| n "0 .. 15"
] # speed "[[1 0.8], [1.5 2]*2]/3"

d1 $ superimpose (fast 4) $ sound "bd sn [cp ht] hh"

d1 $ layer [rev, fast 2] $ sound "arpy [~ arpy:4]"

d1 $ s (steps [("hc","x  x x  x x  x"),("bd", "xx xx")])

d1 $ jux (striate 4) $ s (steps [("bd", "x x xx x")]) # n (run 8)
  # bandf (range 0 1200 $ (sine))
  # bandq (1-sine)
  -- # hpq (cF 1 "22")
  -- # djf sine
