d1 $ mask "t(3,8)" $ fast 4 $ chunk 8 (|- note 12) $ arp "<up down>" $ n "<c'min a'maj>" # s "Bass_Drums" # legato 2 # sustain 0.5 # crush (sine * 4)

d1 silence

d4 $ s "bd sd"
  

d9 $ mask "t(3,8)" $ s "[readorb:0, readorb:2]"
  # delay 1
