-- 2021.08.03-midi
d1 $ n "[c3(3,8), <c7 c6 ~>(7,8) ~]" # s "midi" # midichan 2

d2 $ n "{c4(3,5), c5 ~}" # s "midi" # midichan 2

d3 $ fast 2 $ n "0 3 [4 7] 9 11 -7" # s "midi" # midichan 2

d4 $ ccv (fastGap 4 "130 40 100 30 70" / (run 10)) # ccn 1 # s "midi" # midichan 2
