setcps 1

d1 $ n "-12 -11? -9" # s "midi" # midichan 0

d2 $ ccv "10 127 50" # ccn "30" # s "midi" # midichan 0

d3 $ n "<0 0(3,8)?>" # s "midi" # midichan 1  

d4 $ n "0(5,7)" # s "midi" # midichan 2


setcps 0.5

sendMsg sock "bpm 155"

hush


