setcps (120/60/4)

do
let pat1 = (scale "minPent" "{-12..0}%7 {-12..0}%9 {-12..0}%3")
let pat2 = (scale "minPent" "{-12..0}%5 {-12..0}%3 {-12..0}%3")
let pat3 = (scale "minPent" "{-12 3 -5 7}")

d1 
    $ struct "f(5,8)"
    -- $ mask "t t f"
    $ slow (range 1 6 (sine))
    $ s "midi" # midichan 0
    # (off 0.25 (|+ 5) 
    $ off 0.125 (|- 7)
    -- (scale "minPent" "{-7..0}%3"))
    (scale "minPent" "{-12..0}%5 -12_ {-12..0}%3 ~ -3")) 



    hush