d1 $ chop "<4 6 7 8>" $ n "0 2 4 7" # s "Bass_Drums"
  -- # crush "<2 4 6>"
-- # room 0.5 #sz 2

d2 $ slice 4 # "0 2(5,8) 4 7(3,8)" # s "bass8"

d2 $ ccn "30" # ccv "10 20 30 40 50" # s "midi"

d3 $ "x" # s "midi" # midichan 2

d4 $ "<Hats:5(3,8) Hats:6*4>" 
  # delay 0.5 #delayfb 0.7


setcps 0.5E

sendMsg sock "bpm 155"

hush


