d1 
  $ chunk 4 (jux rev)
  -- $ stut 3
  $ s "{Hats:5(7,8), Bass_Drums:5(3,8), Snare_Drums:5}" 
  # crush (sine * 10) 
  |- n (run 20)

d1 silence

d2 
  $ iter 4 
  $ every 2 (mask "f(3,8)") 
  $ struct "001101"
  -- $ n (scale "minPent" "0..7")
  $ arp "up thumdown pinkyup" $ n "e3'maj7 a'min c4'maj"
  -- $ n "0 3 5 -7"
  # s "t1002" 

hush
